X:400
T:Worcestershire Hornpipe
T:New Bridge Hornpipe (in Burnett)
T:Navy, The (in Lister)
R:hp 32
C:Trad. ed. Barry Callaghan
S:'Hard Core English' page 26C
O:England
B:Hard Core English ISBN 978 085418 201 5
Z:PJHeadford 2008
M:4/4
L:1/8
Q:1/4=140
K:G
|:D2|G2G2 GBd2|e2ef g2e2|dBGB dBGB|cAFA cAFD|
G2G2 GBd2|e2ef g2e2|dgfe dcBA|G2G2 G2:|
|:Bc|d2B2 GFG2|e2c2 cBc2|d2B2 GFG2|AGFE D4|
d2B2 GFGB|cdef g2e2|dgfe dcBA|G2G2 G2:|]
W:Collected C Sharp from Jason Mason, Stowe-on-the-Wold. In Moore.
W:As New Bridge Hornpipe in Burnett and Bewick, as The Navy in Lister.

